!!!!SEGMENT: pl-wtm--r-1461--001-034_stefani-jozef--wszechstronne-cwiczenia-glosowe-alla-pollacca.krn
!!!cenid: 18xx:2210
!!!COM: Stefani, Józef
!!!COM-rismID: pe30024097
!!!CDT: 1800/04/16-1876/03/19
!!!CNT: Polish
!!!GTL: Wszechstronne ćwiczenia głosowe
!!!OTL: Alla Pollacca
!!!OMV: 034
!!!PDT:
!!!AGN: Secular
!!!SMS-siglum: PL-Wtm
!!!SMS-shelfmark: R 1461
!!!SMS-shelfwork: 001-034 G
!!!SMS-variant:
!!!SMS-altvar:
!!!NIFC-rismSourceID: 1001120710
!!!NIFC-rismChildID: 1001120710
!!!NIFC-islandoraID: pl-wtm:25869
!!!URL-pdf-islandora: https://repozytorium.nifc.pl/islandora/object/pl-wtm%3A25869/datastream/PDF/view
!!!URL-scan: https://polish.musicsources.pl/pl/lokalizacje/galeria/rekopisy/6276/33 @EN{Scan on Polish Music Sources Website} @PL{Skany w portalu Dziedzictwo Muzyki Polskiej w otwartym dostępie}
!!!IIIF:
!!!ONB-nifc: UWAGA: skan 0033, s. 62 – 0034, s. 65
!!!AIN: 1 forte 1 tenor
!!!key:
**kern	**kern	**dynam	**kern	**dynam
*part2	*part2	*part2	*part1	*part1
*staff3	*staff2	*	*staff1	*
*Iforte	*Iforte	*	*Itenor	*
*I"Fortepian	*I"Fortepian	*	*I"Sopran/Tenor	*
*clefF4	*clefG2	*	*clefG2	*
*k[f#]	*k[f#]	*	*k[f#]	*
*G:	*G:	*	*G:	*
*M3/4	*M3/4	*	*M3/4	*
*>[A,A,B,B,C,C,D,D,C,C,A,A,B,B,E]	*>[A,A,B,B,C,C,D,D,C,C,A,A,B,B,E]	*	*>[A,A,B,B,C,C,D,D,C,C,A,A,B,B,E]	*
=1	=1	=1	=1	=1
*>A	*>A	*	*>A	*
*all\right	*all\right	*	*all\right	*
*2\right	*2\right	*	*2\right	*
!	!	!	!LO:TX:t=P:problem=all\middle or right&colon; global	!
!	!	!LO:DY:rj	!	!
8E-XL 8EE-X/	8ggL 8b-X 8g'>\	f	2.r	.
16E-L 16EE-/	16ggL 16b- 16g'>\	.	.	.
16E-JJ 16EE-/	16ggJJ 16b- 16g'>\	.	.	.
8E-L 8EE-/	8ggL 8b- 8g'>\	.	.	.
8E- 8EE-/	8gg 8bn 8g'>\	.	.	.
8E- 8EE-/	8gg 8cc 8g'>\	.	.	.
8E-J 8EE-/	8ggJ 8cc#X 8g'>\	.	.	.
=2	=2	=2	=2	=2
8DL 8DD/	8ff#L 8dd 8a\	.	4r	.
16r	16r	.	.	.
16DJk 16DD/	16dddJk 16ff# 16dd\	.	.	.
8DL 8DD/	4ddd 4ff# 4dd\	.	4r	.
8C 8CC/	.	.	.	.
8BB 8BBB/	8r	.	8r	.
8AAJ 8AAA/	8d/	.	(8d/|	.
=3	=3	=3	=3	=3
!	!	!	!LO:TX:a:i:t=dolce	!
4GG 4GGG/	4b 4g 4d^</	.	(>4b/	.
8G 8GG\	8g 8d 8B^</	.	8g/))	.
8r	8r	.	16r	.
.	.	.	16g/|	.
4r	4r	.	(<16f#/LL	.
.	.	.	16g/	.
.	.	.	16a/	.
.	.	.	16b/JJ)	.
!!LO:LB:g=original
=4	=4	=4	=4	=4
4AA 4AAA/	4cc 4f# 4c^</	.	(<4cc/	.
8A 8AA\	8f# 8d 8c^</	.	8f#/)	.
8r	8r	.	8r	.
4r	4r	.	8r	.
.	.	p	(>8d/	.
=5	=5	=5	=5	=5
!	!	!	!	!LO:HP:b
8BB 8BBB/	8r	.	(>4.dd\)	<
8r	8g 8d 8G/	.	.	.
8BB 8BBB/	8r	.	.	.
8r	8g 8d#X 8G/	.	8dd#X\	[
8C 8CC/	8r	.	16ff#\LL	.
.	.	.	16ee\	.
8r	8a 8e 8c/	.	16cc\	.
.	.	.	16a\JJ)	.
=6	=6	=6	=6	=6
8D 8DD/	8r	.	(<8.g/L	.
!	!LO:TX:t=P:problem=belka poprawiona na chorągiewkę	!	!	!
8r	8g 8d 8B/	.	.	.
.	.	.	32a/LL	.
.	.	.	32g/JJJ)	.
!LO:TX:t=P:problem=8DD-D poprawione na 4DD-D	!LO:TX:t=P:problem=8A-d-f# poprawione na 4A-d-f#	!	!	!
4D 4DD/	4f# 4d 4A/	.	4f#/	.
4r	8r	.	8r	.
.	8d/	.	(<8d/|	.
=7	=7	=7	=7	=7
4GG 4GGG/	4b 4g 4d^</	.	4b/	.
8G 8GG\	8g 8d 8B^</	.	8g/)	.
8r	8r	.	16r	.
.	.	.	16g/|	.
4r	4r	.	(<16f#/LL	.
.	.	.	16g/	.
.	.	.	16a/	.
.	.	.	16b/JJ)	.
!!LO:LB:g=original
=8	=8	=8	=8	=8
4AA 4AAA/	4cc 4f# 4c^</	.	(>4cc\	.
8A 8AA\	8f# 8d 8c^</	.	8f#/)	.
8r	8r	.	8r	.
4r	4r	.	8r	.
.	.	.	8dd\	.
=9	=9	=9	=9	=9
!	!	!	!	!LO:HP:b
8BB 8BBB/	8r	.	(>[>4dd\	<
8r	8g 8d 8G/	.	.	.
8BB 8BBB/	8r	.	16dd\LL]	.
.	.	.	16gg\	.
8r	8g 8d 8G/	.	16ff#\	.
!	!	!	!	!LO:HP:b
.	.	.	16gg\JJ)	[>
8C 8CC/	8r	.	(>16ff#\LL	.
.	.	.	16ee\	.
8r	8a 8e 8c/	.	16cc\	.
.	.	.	16a\JJ)	]]
=10	=10	=10	=10	=10
8DL 8DD/	8gL 8d 8B/	.	(<16g/LL	.
.	.	.	16d/	.
8DJ 8DD/	8f#J 8d 8c/	.	16b/	.
.	.	.	16a/JJ)	.
(>4D (>4DD/	(<4f# [>4d (>4c/	.	(<4a/	.
8G) 8GG\)	8g) 8d] 8B/)	.	8g/)	.
8r	8r	.	8r	.
=11:|!|:	=11:|!|:	=11:|!|:	=11:|!|:	=11:|!|:
*>B	*>B	*	*>B	*
!	!	!LO:DY:rj	!	!LO:DY:a:rj
4D 4DD/	8r	f	(<[<4a/	f
.	8f#L 8d 8A/	.	.	.
4r	8f# 8d 8A/	.	16a/LL]	.
.	.	.	16dd/	.
.	8f#J 8d 8A/	.	16cc#X/	.
.	.	.	16dd/JJ	.
8D 8DD/	8r	.	16b/LL	.
.	.	.	16dd/	.
8r	8g 8d 8B/	.	16cc#/	.
.	.	.	16dd/JJ)	.
!!LO:LB:g=original
=12	=12	=12	=12	=12
!	!	!	!LO:TX:t=P:problem=8.b poprawione na 8.a	!
4D 4DD/	8r	.	8.a/L	.
.	8f#L 8d 8A/	.	.	.
!	!	!	!LO:TX:t=P:problem=16g poprawione na 16f#	!
.	.	.	16f#/Jk	.
!	!	!	!LO:TX:t=P:problem=4b poprawione na 4a	!
4r	8f# 8d 8A/	.	4a/	.
.	8f#J 8d 8A/	.	.	.
8D 8DD/	8r	.	8r	.
8r	8f# 8d 8A/	.	8dd\	.
=13	=13	=13	=13	=13
!	!	!LO:DY:rj	!	!
8AA 8AAA/	8r	p	(>8ff#^<\L	.
8r	8g 8c#X 8A/	.	16ee\Jk)	.
.	.	.	16r	.
*rep	*rep	*	*	*
8AA 8AAA/	8r	.	(>8ff#^<\L	.
8r	8g 8c# 8A/	.	16ee\Jk)	.
.	.	.	16r	.
*Xrep	*Xrep	*	*	*
*rep	*rep	*	*	*
8AA 8AAA/	8r	.	(>8b^<\L	.
8r	8g 8c# 8A/	.	16cc#X\Jk)	.
.	.	.	16r	.
*Xrep	*Xrep	*	*	*
=14	=14	=14	=14	=14
4D 4DD/	8r	.	(>8.dd\L	.
.	8f#L 8d 8A/	.	.	.
.	.	.	32cc#X\LL	.
.	.	.	32b\JJJ	.
4r	8f# 8d 8A/	.	4a/)	.
.	8f#J 8d 8A/	.	.	.
8D 8DD/	8r	.	8r	.
8r	8f# 8d 8A/	.	8a/	.
=15	=15	=15	=15	=15
!	!	!LO:DY:rj	!	!
4D 4DD/	8r	f	(<[<4a/	.
.	8f#L 8d 8A/	.	.	.
4r	8f# 8d 8A/	.	16a/LL]	.
.	.	.	16dd/	.
.	8f#J 8d 8A/	.	16cc#X/	.
.	.	.	16dd/JJ	.
!	!	!	!LO:TX:a:t=P:problem=bemol zapisany ołówkiem	!
8D 8DD/	8r	.	16b-/LL	.
.	.	.	16dd/	.
!	!LO:TX:a:t=P:problem=bemol zapisany ołówkiem	!	!	!
8r	8g 8d 8B-/	.	16cc#/	.
.	.	.	16dd/JJ)	.
!!LO:PB:g=original
=16	=16	=16	=16	=16
.	.	.	8qb/	.
4D 4DD/	8r	.	8.a/L	.
.	8f#L 8d 8A/	.	.	.
.	.	.	16f#/Jk	.
4r	8f# 8d 8A/	.	4a/	.
.	8f#J 8d 8A/	.	.	.
8D 8DD/	8r	.	8r	.
8r	8f# 8d 8A/	.	8a/	.
=17	=17	=17	=17	=17
8AA 8AAA/	8r	.	(>8ff#^<\L	.
8r	8g 8c#X 8A/	.	16ee\Jk)	.
.	.	.	16r	.
*rep	*rep	*	*	*
8AA 8AAA/	8r	.	(>8ff#^<\L	.
8r	8g 8c# 8A/	.	16ee\Jk)	.
.	.	.	16r	.
*Xrep	*Xrep	*	*	*
*rep	*rep	*	*	*
8AA 8AAA/	8r	.	(>8b\L	.
8r	8g 8c# 8A/	.	8cc#X\J)	.
*Xrep	*Xrep	*	*	*
=18	=18	=18	=18	=18
8D 8DD/	8r	.	16dd'>\LL	.
.	.	.	(>16dd\	.
8r	8f# 8d 8A/	.	16ee\	.
.	.	.	16dd\JJ)	.
8E 8EE/	8r	.	16cc#X'>\LL	.
.	.	.	(>16cc#\	.
8r	8g 8c#X 8A/	.	16dd\	.
.	.	.	16cc#\JJ)	.
4F# 4FF#/	8r	.	16ccn'>\LL	.
.	.	.	(>16cc\	.
.	8a 8d 8cn/	.	16dd\	.
.	.	.	16cc\JJ)	.
!!LO:LB:g=original
=19	=19	=19	=19	=19
4GG 4GGG/	4b 4g 4d^</	.	(<4b/	.
8G 8GG\	8g 8d 8B^</	.	8g/)	.
!	!	!	!LO:N:vis=16.	!
8r	8r	.	16r	.
.	.	.	(>(>16g/|	.
4r	4r	.	(<16f#/LL)	.
.	.	.	16g/	.
.	.	.	16a/	.
.	.	.	16b/JJ))	.
=20	=20	=20	=20	=20
4AA 4AAA/	4cc 4f# 4c^</	.	(<4cc/	.
8A 8AA\	8f# 8d 8c^</	.	8f#/)	.
8r	8r	.	8r	.
4r	4r	.	8r	.
.	.	.	(>8d/	.
=21	=21	=21	=21	=21
8BB 8BBB/	8r	.	(>4.dd\)	<
8r	8g 8d 8G/	.	.	.
8BB 8BBB/	8r	.	.	.
8r	8g 8d#X 8G/	.	8dd#X\)	.
4C 4CC/	8r	.	(>16ff#\LL	[ >
.	.	.	16ee\	.
.	8a 8e 8c/	.	16cc\	.
.	.	.	16a\JJ)	]]
=22	=22	=22	=22	=22
8D 8DD/	8r	.	(<8.g/L	.
8r	8gL 8d 8B/	.	.	.
.	.	.	32a/LL	.
.	.	.	32g/JJJ	.
8D 8DD/	8f#J 8d 8A/	.	8f#/)	.
8r	8r	.	16r	.
.	.	.	16d/|	.
4r	4r	.	(<16e/LL	.
.	.	.	16f#/	.
.	.	.	16g/	.
.	.	.	16a/JJ)	.
!!LO:LB:g=original
=23	=23	=23	=23	=23
4GG 4GGG/	4b 4g 4d^</	.	(<4b/	.
8G 8GG\	8g 8d 8B^</	.	8g/)	.
!	!	!	!LO:N:vis=16.	!
8r	8r	.	16r	.
.	.	.	16g/|	.
4r	4r	.	(<16f#/LL	.
.	.	.	16g/	.
.	.	.	16a/	.
.	.	.	16b/JJ)	.
=24	=24	=24	=24	=24
4AA 4AAA/	4cc 4f# 4c^</	.	(<4cc/	.
8A 8AA\	8f# 8d 8c^</	.	8f#/)	.
8r	8r	.	8r	.
4r	4r	.	8r	.
.	.	.	[>8dd\	.
=25	=25	=25	=25	=25
!	!	!	!	!LO:HP:b
8BB 8BBB/	8r	.	(>4dd\_>	<
8r	8g 8d 8G/	.	.	.
8BB 8BBB/	8r	.	16dd\LL]	.
.	.	.	16gg\	.
8r	8g 8d 8G/	.	16ff#\	.
!	!	!	!	!LO:HP:b
.	.	.	16gg\JJ	[>
4C 4CC/	8r	.	16ff#\LL	.
.	.	.	16ee\	.
.	8a 8e 8c/	.	16cc\	.
.	.	.	16a\JJ	]]
=26	=26	=26	=26	=26
8DL 8DD/	8gL 8d 8B/	.	(<16g/LL)	.
.	.	.	16d/	.
8DJ 8DD/	8f#J 8d 8c/	.	16b/	.
.	.	.	16a/JJ	.
4D 4DD/	4f# 4d 4c/	.	(<4a/)	.
8G 8GG\	8g 8d 8B/	.	8g/)	.
!	!LO:TX:t=P:problem=fermata na kresce taktowej	!	!LO:TX:t=P:problem=fermata na kresce taktowej	!
8r	8r;>	.	8r;>	.
!LO:TX:b:i:t=fine	!	!	!	!
!!LO:PB:g=original
=27:|!	=27:|!	=27:|!	=27:|!	=27:|!
*>C	*>C	*	*>C	*
*k[]	*k[]	*	*k[]	*
*M3/4	*M3/4	*	*M3/4	*
!	!	!	!LO:TX:t=P:problem=znak pod metrum	!
!LO:TX:t=P:problem=2\right&colon; global	!	!	!LO:TX:a:i:t=Trio.	!
!	!	!LO:DY:rj	!LO:TX:t=[segno]	!
2.C 2.CC\	8r	p	8ee\	.
.	(8e 8c 8G<'>/	.	8r	.
*	*tremolo	*	*	*
!	!LO:TX:a:t=....	!	!	!
.	8eL 8c 8G<'>/	.	4.gg^<\	.
.	8e 8c 8G'/	.	.	.
.	8e 8c 8G'/	.	.	.
.	8eJ 8c 8G'/)	.	8cc\	.
=28	=28	=28	=28	=28
.	.	.	(<8qcc/	.
2.D 2.DD\	8r	.	8b\L)	.
.	8f 8B 8G</	.	8a\J	.
.	8fL 8B 8G</	.	4.b\	.
.	8f 8B 8G/	.	.	.
.	8f 8B 8G/	.	.	.
.	8fJ 8B 8G/	.	8r	.
=29	=29	=29	=29	=29
2.GG 2.GGG\	8r	.	8dd\	.
.	8f 8B 8G</	.	8r	.
.	8fL 8B 8G</	.	4.ff^<\	.
.	8f 8B 8G/	.	.	.
.	8f 8B 8G/	.	.	.
.	8fJ 8B 8G/	.	8b\	.
=30	=30	=30	=30	=30
.	.	.	(<8qdd/	.
2.C 2.CC\	8r	.	8cc\L)	.
.	8e 8c 8G</	.	8b\J	.
.	8eL 8c 8G</	.	4.cc\	.
.	8e 8c 8G/	.	.	.
.	8e 8c 8G/	.	.	.
.	8eJ 8c 8G/	.	8r	.
!!LO:LB:g=original
=31	=31	=31	=31	=31
2.E 2.EE\	8r	.	8g/	.
.	8g 8c 8G</	.	8r	.
.	8gL 8c 8G</	.	(>4.cc^>\	.
.	8g 8c 8G/	.	.	.
.	8g 8c 8G/	.	.	.
.	8gJ 8c 8G/	.	8b\)	.
=32	=32	=32	=32	=32
2F 2FF\	8r	.	(<8g#X/L	.
.	8f 8d 8A</	.	8a/J)	.
.	8fL 8d 8A</	.	4.dd^>\	.
.	8f 8d 8A/	.	.	.
4D 4DD\	8f 8d 8A/	.	.	.
.	8fJ 8d 8A/	.	(>8ff\	.
*	*Xtremolo	*	*	*
=33	=33	=33	=33	=33
4GG 4GGG\	8r	.	8ee\)	.
.	8e 8c 8G</	.	(4cc^<\	.
4rFF	8eL 8c 8G</	.	.	.
.	8eJ 8c 8G</	.	8g/	.
4GG 4GGG\	8r	.	(<16f#X/LL	.
.	.	.	16g/	.
.	8f 8B 8G</	.	16ee/	.
.	.	.	16dd/JJ))	.
=34	=34	=34	=34	=34
8CL 8CC\	8eL 8c 8G</	.	8cc\L	.
8GGJ 8GGG\	8fJ 8B 8G</	.	(>16ee\L	.
.	.	.	16dd\JJ)	.
4GG 4GGG\	(>4f (<4B 4G<^/	.	(>4dd\	.
8C 8CC\	8e 8c) 8G</)	.	8cc\)	.
!	!	!	!LO:TX:t=P:problem=fermata na kresce taktowej	!
8r	8r	.	8r;>	.
!LO:TX:b:i:t=fine	!	!	!	!
!!LO:LB:g=original
=35:|!|:	=35:|!|:	=35:|!|:	=35:|!|:	=35:|!|:
*>D	*>D	*	*>D	*
.	.	.	(<8qee/	.
!	!	!LO:DY:rj	!	!
4D 4DD/	8r	mf	8dd\L)	.
.	8f#X 8d 8c/	.	8g#X'>\J	.
*	*tremolo	*	*	*
4r	8f#L 8d 8c/	.	(>4.a/	.
.	8f# 8d 8c/	.	.	.
4r	8f# 8d 8c/	.	.	.
.	8f#J 8d 8c/	.	8cc\)	.
=36	=36	=36	=36	=36
.	.	.	(<8qee/	.
4D 4DD/	8r	.	8dd\L)	.
.	8g 8d 8B/	.	8a#X'>\J	.
4r	8gL 8d 8B/	.	4.b\	.
.	8g 8d 8B/	.	.	.
4r	8g 8d 8B/	.	.	.
!	!	!	!	!LO:HP:b
.	8gJ 8d 8B/	.	(>16dd\LL	<
.	.	f	16gg\JJ)	[[
*	*Xtremolo	*	*	*
=37	=37	=37	=37	=37
8D 8DD/	8r	.	(>16gg\LL	.
.	.	.	16ff#X\)	.
8r	8f#X 8d 8c 8A/	.	(>16ff#\	.
.	.	.	16ee\JJ)	.
*rep	*rep	*	*	*
8D 8DD/	8r	.	(>16ee\LL	.
.	.	.	16dd\)	.
8r	8f# 8d 8c 8A/	.	(>16dd\	.
.	.	.	16cc\JJ)	.
*Xrep	*Xrep	*	*	*
*rep	*rep	*	*	*
8D 8DD/	8r	.	(>16cc\LL	.
.	.	.	16b\)	.
8r	8f# 8d 8c 8A/	.	(>16b\	.
.	.	.	16a\JJ)	.
*Xrep	*Xrep	*	*	*
=38	=38	=38	=38	=38
8G 8GG\	8r	.	(>16a#X\LL	.
.	.	.	16b\	.
8r	8g 8d 8B/	.	16dd\	.
.	.	.	16b\JJ)	.
*rep	*rep	*	*	*
8G 8GG\	8r	.	4.g/	.
8r	8g 8d 8B/	.	.	.
*Xrep	*Xrep	*	*	*
*rep	*rep	*	*	*
8G 8GG\	8r	.	.	.
8r	8g 8d 8B/	.	8b/	.
*Xrep	*Xrep	*	*	*
!!LO:LB:g=original
=39	=39	=39	=39	=39
.	.	.	(<8qee/	.
!	!	!LO:DY:rj	!	!
4D 4DD/	8r	mf	8dd\L)	.
.	8f#X 8d 8c/	.	8g#X\J|	.
*	*tremolo	*	*	*
4r	8f#L 8d 8c/	.	(>4.a/	.
.	8f# 8d 8c/	.	.	.
4r	8f# 8d 8c/	.	.	.
.	8f#J 8d 8c/	.	8cc\)	.
=40	=40	=40	=40	=40
.	.	.	(<8qee/	.
4D 4DD/	8r	.	8dd\L)	.
.	8g 8d 8B/	.	8a#X>'>\J	.
4r	8gL 8d 8B/	.	4.b'\	.
.	8g 8d 8B/	.	.	.
4r	8g 8d 8B/	.	.	.
!	!	!	!	!LO:HP:b
.	8gJ 8d 8B/	.	(>16dd\LL	<
.	.	f	16gg\JJ)	[[
*	*Xtremolo	*	*	*
=41	=41	=41	=41	=41
8D 8DD/	8r	.	(>16gg\LL	.
.	.	.	16ff#X\)	.
8r	8f#X 8d 8c 8A/	.	(>16ff#\	.
.	.	.	16ee\JJ)	.
*rep	*rep	*	*	*
8D 8DD/	8r	.	(>16ee\LL	.
.	.	.	16dd\)	.
8r	8f# 8d 8c 8A/	.	(>16dd\	.
.	.	.	16cc\JJ)	.
*Xrep	*Xrep	*	*	*
*rep	*rep	*	*	*
8D 8DD/	8r	.	(>16cc\LL	.
.	.	.	16b\)	.
8r	8f# 8d 8c 8A/	.	(>16b\	.
.	.	.	16a\JJ)	.
*Xrep	*Xrep	*	*	*
=42	=42	=42	=42	=42
8G 8GG\	8g 8d 8B/	.	8g/	.
8r	4gg 4g^<\	.	4gg^<\	.
4f 4d\	.	.	.	.
.	4gg 4g^<\	.	4g^</	.
8eL 8c\	.	.	.	.
!LO:TX:b:i:t=dacapo Trio al finé \nda capo alla Pollacca \ne poi la Coda.	!	!	!LO:TX:t=P:problem=znak na kresce taktowej	!
8dJ 8G\	8ffn 8fn\	.	8ffn\	.
!LO:TX:t=[segno]	!LO:TX:t=[segno]	!	!LO:TX:t=[segno]	!
!!LO:PB:g=original
=43||	=43||	=43||	=43||	=43||
*>E	*>E	*	*>E	*
*k[f#]	*k[f#]	*	*k[f#]	*
!	!	!	!LO:TX:a:i:t=Coda	!
8GG 8GGG\	8r	.	(>16ffn\LL	.
.	.	.	16ee\)	.
8rFF	8fn 8B 8G</	.	(>16ee\	.
.	.	.	16dd\JJ)	.
*rep	*rep	*	*	*
8GG 8GGG\	8r	.	(>16ff\LL	.
.	.	.	16ee\)	.
8r	8f 8B 8G</	.	(>16ee\	.
.	.	.	16dd\JJ)	.
*Xrep	*Xrep	*	*	*
*rep	*rep	*	*	*
8GG 8GGG\	8r	.	(>16cc\LL	.
.	.	.	16b\	.
8r	8f 8B 8G</	.	16a\	.
!	!	!	!	!LO:HP:b
.	.	.	16b\JJ)	<
*Xrep	*Xrep	*	*	*
=44	=44	=44	=44	=44
8C 8CC\	8r	.	(>16gg\LL	[
.	.	.	16ffn\)	.
8rFF	8e 8c 8G</	.	(>16ff\	.
.	.	.	16ee\JJ)	.
*rep	*rep	*	*	*
8C 8CC\	8r	.	(>16gg\LL	.
.	.	.	16ff\)	.
8r	8e 8c 8G/	.	(>16ff\	.
.	.	.	16ee\JJ)	.
*Xrep	*Xrep	*	*	*
*rep	*rep	*	*	*
8C 8CC\	8r	.	(>16dd\LL	.
.	.	.	16cc\	.
8r	8e 8c 8G/	.	16b\	.
.	.	.	16cc\JJ)	.
*Xrep	*Xrep	*	*	*
=45	=45	=45	=45	=45
8Fn 8FFn\	8fn 8c 8A/	.	8a/	.
8r	8r	.	8r	.
!	!	!	!	!LO:DY:a:rj
2F#X 2FF#X\	2a 2e-X 2c^>/	.	4.aa^<\	f
.	.	.	8a/	.
!!LO:LB:g=original
=46	=46	=46	=46	=46
!	!	!LO:DY:rj	!	!
4.G 4.GG\	4.g 4.en 4.c/	f	(<8g/L	.
.	.	.	16cc/L	.
.	.	.	16ee/JJ	.
.	.	.	8gg\)	.
8r	8r	.	8r	.
4G 4GG\	4b 4fn 4d/	.	4bt\	.
=47	=47	=47	=47	=47
4G 4C\	4cc 4e 4c/	.	4cc\	.
4c 4G 4E 4C\	4ccc 4gg 4ee 4cc^<\	.	4r	.
4r	8r	.	8r	.
.	8d/	.	8d/|	.
=48	=48	=48	=48	=48
!	!	!	!LO:TX:a:i:t=dolce	!
4GG 4GGG/	4b 4g 4d^>/	.	(4b/	.
8G 8GG\	8g 8d 8B^>/	.	8g/)	.
8r	8r	.	16r	.
.	.	.	16g/|	.
4r	4r	.	(<16f#/LL	.
.	.	.	16g/	.
.	.	.	16a/	.
.	.	.	16b/JJ)	.
=49	=49	=49	=49	=49
4AA 4AAA/	4cc 4f# 4c^</	.	(>4cc\	.
8A 8AA\	8f# 8d 8c^</	.	8f#/)	.
8r	8r	.	8r	.
4r	4r	.	8r	.
.	.	.	8d/	.
=50	=50	=50	=50	=50
!	!	!	!	!LO:HP:a
8BB 8BBB/	8r	.	4.dd\	<
8r	8g 8d 8G/	.	.	.
8BB 8BBB/	8r	.	.	.
8r	8g 8d#X 8G/	.	8dd#X\	.
!	!	!	!	!LO:HP:a
4C 4CC/	8r	.	(>16ff#\LL	[ >
.	.	.	16ee\	.
.	8a 8e 8c/	.	16cc\	.
.	.	.	16a\JJ)	]]
!!LO:LB:g=original
=51	=51	=51	=51	=51
8D 8DD/	8r	.	(<8.g/L	.
8r	8g 8d 8B/	.	.	.
.	.	.	32a/LL	.
.	.	.	32g/JJJ	.
4D 4DD/	8f# 8d 8A/	.	4f#/)	.
.	8r	.	.	.
4r	8r	.	8r	.
.	8d/	.	8d/	.
=52	=52	=52	=52	=52
4GG 4GGG/	4b 4g 4d^</	.	(<4b/	.
8G 8GG\	8g 8d 8B^</	.	8g/)	.
8r	8r	.	16r	.
.	.	.	16g/|	.
4r	4r	.	(<16f#/LL	.
.	.	.	16g/	.
.	.	.	16a/	.
.	.	.	16b/JJ)	.
=53	=53	=53	=53	=53
4AA 4AAA/	4cc 4f# 4c/	.	(>4cc\	.
8A 8AA\	8f# 8d 8c/	.	8f#/)	.
8r	8r	.	8r	.
4r	4r	.	8r	.
.	.	.	(>8dd\	.
=54	=54	=54	=54	=54
!	!	!	!	!LO:HP:b
8BB 8BBB/	8r	.	[>4dd\	<
8r	8g 8d 8G/	.	.	.
8BB 8BBB/	8r	.	16dd\LL]	.
.	.	.	16gg\	.
8r	8g 8d 8G/	.	16ff#\	.
.	.	.	16gg\JJ	.
!	!	!	!	!LO:HP:b
4C 4CC/	8r	.	16ff#\LL	[ >
.	.	.	16ee\	.
.	8a 8e 8c/	.	16cc\	.
.	.	.	16a\JJ)	]]
!!LO:LB:g=original
=55	=55	=55	=55	=55
!	!	!LO:DY:rj	!	!
4G 4GG\	4g 4d 4B/	f	(<16g/LL	.
.	.	.	16d/	.
.	.	.	16b/	.
.	.	.	16a/JJ	.
4r	4r	.	4dd\)	.
!	!	!	!	!LO:DY:a:rj
4D 4DD/	4f# 4d 4c 4A/	.	4ff#\	f
=56	=56	=56	=56	=56
4G 4GG\	4g 4d 4B/	.	(>16gg\LL	.
.	.	.	16ee\	.
.	.	.	16dd\	.
.	.	.	16b\JJ	.
4r	4r	.	4dd'>\)	.
4D 4DD/	4f# 4d 4c 4A/	.	4ff#t\	.
=57	=57	=57	=57	=57
4G 4GG\	4g 4d 4B/	.	(>16gg\LL	.
.	.	.	16ee\	.
.	.	.	16dd\	.
.	.	.	16b\JJ	.
4r	4r	.	4dd\)	.
4D 4DD/	4f# 4d 4c 4A/	.	4ff#t\	.
=58	=58	=58	=58	=58
8G 8GG\	8g 8d 8B/	.	8gg\L|	.
(>8e\L	(<8ee/L	.	(>8ee\	.
8d\	8dd/	.	8dd\	.
8B\	8b/	.	8b\	.
8G\	8g/	.	8g\	.
8E\J	8e/J)	.	8e\J)	.
=59	=59	=59	=59	=59
8D\)	8d/	.	8d/	.
8r	8r	.	8r	.
*	*	*	*2\right	*
4d 4B 4G 4D\	4gg 4dd 4b\	.	2dd\	.
4d 4A 4F# 4D\	4ff# 4dd 4cc 4a\	.	.	.
=60	=60	=60	=60	=60
4d 4B 4G\	4gg 4dd 4b\	.	4g/	.
4G 4GG/	4g/	.	4r	.
4r	4r	.	4r	.
==	==	==	==	==
*-	*-	*-	*-	*-
!!!system-decoration: s1{(s2,s3)}
!!!RDF**kern: | = vertical stroke
!!!RDF**kern: > = above
!!!RDF**kern: < = below
!!!EED: Antoni Szymański
!!!EEV: 2021-06-04
!!!ENC: Katarzyna Serwa
!!!END: 2021-05-19
!!!YEC: Copyright 2022 Narodowy Instytut Fryderyka Chopina (https://polishscores.org)
!!!YEM: License CC-BY-4.0 (https://creativecommons.org/licenses/by/4.0)
